svg/hand-left-sharp.svg

<svg xmlns="http://www.w3.org/2000/svg" width="512" height="512" viewBox="0 0 512 512"><title>ionicons-v5-i</title><path d="M429.58,209.08h0c-15.06-6.62-32.38,1.31-38.5,17.62L356,312H344.73V80c0-17.6-13.3-32-29.55-32h0c-16.26,0-29.55,14.4-29.55,32V231.75l-14.78.25V32c0-17.6-13.3-32-29.55-32h0c-16.25,0-29.55,14.4-29.55,32V231.75L197,232V64c0-17.6-13.3-32-29.55-32h0c-16.26,0-29.55,14.4-29.55,32V247.75L123.1,248V128c0-17.6-13.3-32-29.55-32h0C77.3,96,64,110.4,64,128V344c0,75.8,37.13,168,169,168,40.8,0,79.42-7,100.66-21a121.41,121.41,0,0,0,33.72-33.31,138,138,0,0,0,16-31.78l62.45-175.14C452,234.46,444.64,215.71,429.58,209.08Z"/></svg>

<?xml version="1.0" encoding="UTF-8" standalone="no"?>
<svg
   xmlns:dc="http://purl.org/dc/elements/1.1/"
   xmlns:cc="http://creativecommons.org/ns#"
   xmlns:rdf="http://www.w3.org/1999/02/22-rdf-syntax-ns#"
   xmlns:svg="http://www.w3.org/2000/svg"
   xmlns="http://www.w3.org/2000/svg"
   xmlns:sodipodi="http://sodipodi.sourceforge.net/DTD/sodipodi-0.dtd"
   xmlns:inkscape="http://www.inkscape.org/namespaces/inkscape"
   class="ionicon"
   viewBox="0 0 512 512"
   version="1.1"
   id="svg6"
   sodipodi:docname="hand-left-sharp.svg"
   inkscape:version="1.0.2 (e86c8708, 2021-01-15)">
  <metadata
     id="metadata12">
    <rdf:RDF>
      <cc:Work
         rdf:about="">
        <dc:format>image/svg+xml</dc:format>
        <dc:type
           rdf:resource="http://purl.org/dc/dcmitype/StillImage" />
      </cc:Work>
    </rdf:RDF>
  </metadata>
  <defs
     id="defs10" />
  <sodipodi:namedview
     pagecolor="#ffffff"
     bordercolor="#666666"
     borderopacity="1"
     objecttolerance="10"
     gridtolerance="10"
     guidetolerance="10"
     inkscape:pageopacity="0"
     inkscape:pageshadow="2"
     inkscape:window-width="689"
     inkscape:window-height="480"
     id="namedview8"
     showgrid="false"
     inkscape:zoom="1.3027344"
     inkscape:cx="256"
     inkscape:cy="256"
     inkscape:window-x="44"
     inkscape:window-y="25"
     inkscape:window-maximized="0"
     inkscape:current-layer="svg6" />
  <title
     id="title2">Hand Left</title>
  <path
     style="color:#000000;font-style:normal;font-variant:normal;font-weight:normal;font-stretch:normal;font-size:medium;line-height:normal;font-family:sans-serif;font-variant-ligatures:normal;font-variant-position:normal;font-variant-caps:normal;font-variant-numeric:normal;font-variant-alternates:normal;font-variant-east-asian:normal;font-feature-settings:normal;font-variation-settings:normal;text-indent:0;text-align:start;text-decoration:none;text-decoration-line:none;text-decoration-style:solid;text-decoration-color:#000000;letter-spacing:normal;word-spacing:normal;text-transform:none;writing-mode:lr-tb;direction:ltr;text-orientation:mixed;dominant-baseline:auto;baseline-shift:baseline;text-anchor:start;white-space:normal;shape-padding:0;shape-margin:0;inline-size:0;clip-rule:nonzero;display:inline;overflow:visible;visibility:visible;isolation:auto;mix-blend-mode:normal;color-interpolation:sRGB;color-interpolation-filters:linearRGB;solid-color:#000000;solid-opacity:1;vector-effect:none;fill:#000000;fill-opacity:1;fill-rule:nonzero;stroke-width:1;stroke-linecap:butt;stroke-linejoin:miter;stroke-miterlimit:4;stroke-dasharray:none;stroke-dashoffset:0;stroke-opacity:1;color-rendering:auto;image-rendering:auto;shape-rendering:auto;text-rendering:auto;enable-background:accumulate;stop-color:#000000;stop-opacity:1;stroke:none;opacity:1"
     d="m 429.58,209.08 c -15.06,-6.62 -32.38,1.31 -38.5,17.62 L 356,312 H 344.73 V 80 c 0,-17.6 -13.3,-32 -29.55,-32 -16.26,0 -29.55,14.4 -29.55,32 V 231.75 L 270.85,232 V 32 C 270.85,14.4 257.55,0 241.3,0 225.05,0 211.75,14.4 211.75,32 V 231.75 L 197,232 V 64 C 197,46.4 183.7,32 167.45,32 151.19,32 137.9,46.4 137.9,64 V 247.75 L 123.1,248 V 128 C 123.1,110.4 109.8,96 93.55,96 77.3,96 64,110.4 64,128 v 216 c 0,75.8 37.13,168 169,168 40.8,0 79.42,-7 100.66,-21 13.31925,-8.78016 24.77757,-20.09915 33.72,-33.31 6.68235,-9.85853 12.06037,-20.54062 16,-31.78 l 62.45,-175.14 c 6.17,-16.31 -1.19,-35.06 -16.25,-41.69 z"
     id="path4" />
</svg>
